static/images/snowman-5.svg

<svg id="Layer_1" data-name="Layer 1" xmlns="http://www.w3.org/2000/svg" xmlns:xlink="http://www.w3.org/1999/xlink" viewBox="0 0 400 400"><defs><style>.cls-1{fill:url(#linear-gradient)}.cls-2{fill:url(#linear-gradient-2)}.cls-3{fill:none;stroke:#603913;stroke-miterlimit:10;stroke-width:5px}.cls-4{fill:url(#linear-gradient-3)}.cls-5{fill:url(#linear-gradient-4)}.cls-6{fill:url(#linear-gradient-5)}.cls-7{fill:#231f20}</style><linearGradient id="linear-gradient" x1="200" y1="258.42" x2="200" y2="5.07" gradientUnits="userSpaceOnUse"><stop offset="0" stop-color="#27aae1"/><stop offset="1" stop-color="#1c75bc"/></linearGradient><linearGradient id="linear-gradient-2" x1="200.54" y1="272.56" x2="199.45" y2="398.51" gradientUnits="userSpaceOnUse"><stop offset="0" stop-color="#fff"/><stop offset="1" stop-color="#d1d3d4"/></linearGradient><linearGradient id="linear-gradient-3" x1="205.39" y1="358.34" x2="205.39" y2="281.71" gradientUnits="userSpaceOnUse"><stop offset="0" stop-color="#d1d3d4"/><stop offset="1" stop-color="#f1f2f2"/></linearGradient><linearGradient id="linear-gradient-4" x1="205.39" y1="216.52" x2="205.39" y2="162.61" xlink:href="#linear-gradient-3"/><linearGradient id="linear-gradient-5" x1="205.39" y1="127.65" x2="205.39" y2="91.86" xlink:href="#linear-gradient-3"/></defs><path class="cls-1" d="M0 0h400v270H0z"/><path class="cls-2" d="M0 270h400v130H0z"/><path class="cls-3" d="M250.9 168.24c10.39 9.85 33.73 28.15 48 31 2.53 11.69 7.32 30.8 4.17 42.67m19.04-7.84l-18.64-12.61m-17.5-27.35l-2.7-13.21m-122.8-14.11c-18.51 13.09-27 26.79-30.53 49.11-15.4 7.26-39 23.83-57 18.77m12.79 15.91l13.09-19.2m35.48-32.7l-27.9-1.45"/><path class="cls-4" d="M228.54 228.3c75.06 22.7 56.68 142.59-23.15 140.2-79.82 2.38-98.21-117.49-23.14-140.2 0 0 5.67-2.62 22-2.73 20.69-.14 24.29 2.73 24.29 2.73z"/><path class="cls-5" d="M218.44 127c60.07 13.05 49.35 108.09-13.05 106.41-62.39 1.7-73.12-93.33-13.06-106.41a52.57 52.57 0 0 1 12.15-1.54 58 58 0 0 1 13.96 1.54z"/><path class="cls-6" d="M237.06 99.52c.6 41.09-63.94 41.09-63.33 0-.6-41.08 63.94-41.08 63.33 0z"/><path class="cls-7" d="M195.73 94.62c3.22 0 3.22-5 0-5s-3.22 5 0 5zm19.33 0c3.22 0 3.22-5 0-5s-3.22 5 0 5zm-9.67 24.64c3.22 0 3.23-5 0-5s-3.22 5 0 5zm10.53-2.26c3.22 0 3.22-5 0-5s-3.22 5 0 5zm-21.05 0c3.22 0 3.22-5 0-5s-3.22 5 0 5zm-7.21-7.14c3.22 0 3.22-5 0-5s-3.22 5 0 5zm35.47 0c3.21 0 3.22-5 0-5s-3.23 5 0 5zm-17.74 47.6a5 5 0 1 0-5-5 5 5 0 0 0 5 5zm0 26.22a5 5 0 1 0-5-5 5 5 0 0 0 5 5zm0 29.32a5 5 0 1 0-5-5 5.1 5.1 0 0 0 5 5zm0 51.29a5 5 0 1 0-5-5 5 5 0 0 0 5 5zm0 39.11a5 5 0 1 0-5-5 5 5 0 0 0 5 5zm0 36.89a5 5 0 1 0-5-5 5 5 0 0 0 5 5z"/></svg>

<svg id="Layer_1" data-name="Layer 1" xmlns="http://www.w3.org/2000/svg" xmlns:xlink="http://www.w3.org/1999/xlink" viewBox="0 0 400 400"><defs><style>.cls-1{fill:url(#linear-gradient)}.cls-2{fill:url(#linear-gradient-2)}.cls-3{fill:none;stroke:#603913;stroke-miterlimit:10;stroke-width:5px}.cls-4{fill:url(#linear-gradient-3)}.cls-5{fill:url(#linear-gradient-4)}.cls-6{fill:url(#linear-gradient-5)}.cls-7{fill:#231f20}</style><linearGradient id="linear-gradient" x1="200" y1="258.42" x2="200" y2="5.07" gradientUnits="userSpaceOnUse"><stop offset="0" stop-color="#27aae1"/><stop offset="1" stop-color="#1c75bc"/></linearGradient><linearGradient id="linear-gradient-2" x1="200.54" y1="272.56" x2="199.45" y2="398.51" gradientUnits="userSpaceOnUse"><stop offset="0" stop-color="#fff"/><stop offset="1" stop-color="#d1d3d4"/></linearGradient><linearGradient id="linear-gradient-3" x1="205.39" y1="358.34" x2="205.39" y2="281.71" gradientUnits="userSpaceOnUse"><stop offset="0" stop-color="#d1d3d4"/><stop offset="1" stop-color="#f1f2f2"/></linearGradient><linearGradient id="linear-gradient-4" x1="205.39" y1="216.52" x2="205.39" y2="162.61" xlink:href="#linear-gradient-3"/><linearGradient id="linear-gradient-5" x1="205.39" y1="127.65" x2="205.39" y2="91.86" xlink:href="#linear-gradient-3"/></defs><path class="cls-1" d="M0 0H400V270H0z"/><path class="cls-2" d="M0 270H400V400H0z"/><path class="cls-3" d="M250.9 168.24c10.39 9.85 33.73 28.15 48 31 2.53 11.69 7.32 30.8 4.17 42.67"/><path class="cls-3" d="M322.11 234.07L303.47 221.46"/><path class="cls-3" d="M285.97 194.11L283.27 180.9"/><path class="cls-3" d="M160.47 166.79c-18.51 13.09-27 26.79-30.53 49.11-15.4 7.26-39 23.83-57 18.77"/><path class="cls-3" d="M85.73 250.58L98.82 231.38"/><path class="cls-3" d="M134.3 198.68L106.4 197.23"/><path class="cls-4" d="M228.54 228.3c75.06 22.7 56.68 142.59-23.15 140.2-79.82 2.38-98.21-117.49-23.14-140.2 0 0 5.67-2.62 22-2.73 20.69-.14 24.29 2.73 24.29 2.73z"/><path class="cls-5" d="M218.44 127c60.07 13.05 49.35 108.09-13.05 106.41-62.39 1.7-73.12-93.33-13.06-106.41a52.57 52.57 0 0 1 12.15-1.54 58 58 0 0 1 13.96 1.54z"/><path class="cls-6" d="M237.06 99.52c.6 41.09-63.94 41.09-63.33 0-.6-41.08 63.94-41.08 63.33 0z"/><path class="cls-7" d="M195.73 94.62c3.22 0 3.22-5 0-5s-3.22 5 0 5zm19.33 0c3.22 0 3.22-5 0-5s-3.22 5 0 5zm-9.67 24.64c3.22 0 3.23-5 0-5s-3.22 5 0 5zm10.53-2.26c3.22 0 3.22-5 0-5s-3.22 5 0 5zm-21.05 0c3.22 0 3.22-5 0-5s-3.22 5 0 5zm-7.21-7.14c3.22 0 3.22-5 0-5s-3.22 5 0 5zm35.47 0c3.21 0 3.22-5 0-5s-3.23 5 0 5zm-17.74 47.6a5 5 0 1 0-5-5 5 5 0 0 0 5 5zm0 26.22a5 5 0 1 0-5-5 5 5 0 0 0 5 5zm0 29.32a5 5 0 1 0-5-5 5.1 5.1 0 0 0 5 5zm0 51.29a5 5 0 1 0-5-5 5 5 0 0 0 5 5zm0 39.11a5 5 0 1 0-5-5 5 5 0 0 0 5 5zm0 36.89a5 5 0 1 0-5-5 5 5 0 0 0 5 5z"/></svg>
